X: 301
T: Fair Jenny's
C: Peter Barnes
R: jig
M: 6/8
L: 1/8
Q: 180
K: Dmaj
A|:"D"f3 fgf |"A" ecA ecA | "G"Bcd "A"e2A | "G"Bcd "A7"e2g |"D"f3 fed | "A"ecA ecA | 
"G"Bcd "A"e2A | "A"ABc "D"d2 :||:=c|"G"B3 B3/2=c1/2B | GBB B=cB | "D"ADD dDD | 
"E°"cDD "D7/F#"=cDD|"G"B3 B3/2=c1/2B | GBB B=cB | "A"AEA "A7"ABc | "D"d3-d2 :|

